X: 40030
T: Three Steps Forward (Two Steps Back)
R: reel
M: 4/4
K: Gmajor
|:deee BdAd|GBAc Bed2|EGBe fage|dBA^F _E^FAB|
deee BdAd|GBAc Bed2|EGBe fage|1 dBA^d e4:|2 dBA^d e2ef||
|:g3f gecd|ecAc e4|EFGA Begf|afge ^d2 ef|
g3f gecd|ecAc e3D|EGFA GBef|gfed eBef:|
"variation going into Torn Jacket"
EGFA GFGB|^cA^ce ge^cA||

